X:18883
T:Wives Excuse
S:Digital Tradition, wivexcus
N:Also called Cuckolds Make Themselves
B:From Pills To Purge Melancholy Vol VI, D'Urfey
Z:dt:wivexcus
M:3/4
L:1/8
Q:1/4=100
W:Hang this whining way of wooing,
W:Love was design'd a sport
W:Sighing talking without doing
W:Makes a silly idol court;
W:Don't believe that words can move her,
W:If she be not well inclined,
W:She, herself must be the lover
W:To perswade her to be kind.
W:If at last she grants the favour,
W:And consents to be undone,
W:Never think your passion gave her
W:To your wishes but her own.
K:C
g4 c2|c-d- e2 d-c|B4 c2|d4 G2|\
c-d- c2 A2|f-g f2 e2|d4- g2-|e6|
g-f- g2 c2|c-d- e2 d-c|B4 c2|d4 G2|\
G-A- G2 A2|B-c- B2 c2|d-f e2- d-c|c6|
d4 e2|d2- e2 f2|e2- ^f2 g2|^f4 d2|\
g-f- e2 f-d|e-d- c2 d-B|c-B- A2 d2|B6|
d4 e2|d2- e2 f2|e2- ^f2 g2|^f4 d2|\
g-f- e2 f-d|e-d- c2 d-B|c-B- A2 G2|G6|
e4 f2|d4 e/-f/-g|f4 e2|f4 d2|\
e2 A4|B-c- d2 e2|c4 B-A|A6|
a2 e4|f4 d2|e-f- f3e/-f/|g4 c2|\
A-B- B3A/-B/|c4 d2|e2 d4|c6||
